assets/images/probeg.svg

<svg width="18" height="14" viewBox="0 0 18 14" fill="none" xmlns="http://www.w3.org/2000/svg">
<path d="M16.0703 3.81283C16.1265 3.55601 16.0421 3.2992 15.8734 3.12798C14.5237 1.50145 12.6397 0.388572 10.587 0.0176094C10.3339 -0.0394653 10.109 0.0461422 9.91215 0.217357C9.71524 0.388572 9.60277 0.616852 9.60277 0.873674V3.35626C9.60277 3.75576 9.85592 4.06965 10.2214 4.18379C11.0931 4.41207 11.8805 4.86864 12.4991 5.52496C12.6679 5.69618 12.8647 5.78178 13.0896 5.78178C13.2302 5.78178 13.3708 5.75325 13.5114 5.66764L15.6204 4.41207C15.8734 4.29793 16.0421 4.06965 16.0703 3.81283ZM11.9086 6.03861C11.8243 5.953 11.7118 5.92446 11.5992 5.98153C10.7839 6.29542 8.11246 7.37976 7.74692 7.75069C7.07204 8.43557 7.07204 9.57697 7.74692 10.2618C8.42178 10.9467 9.54654 10.9467 10.2214 10.2618C10.587 9.89092 11.6555 7.18003 11.9649 6.35249C12.0211 6.23835 11.993 6.12421 11.9086 6.03861ZM9.29349 9.29164C9.15291 9.4343 8.89977 9.4343 8.75918 9.29164C8.6186 9.14898 8.6186 8.89218 8.75918 8.74952C8.89977 8.60676 9.15291 8.60676 9.29349 8.74952C9.43407 8.89218 9.43407 9.12044 9.29349 9.29164ZM8.42178 3.35626V0.873674C8.42178 0.616852 8.30931 0.388572 8.11246 0.217357C7.91563 0.0461422 7.66256 -0.0109326 7.4376 0.0176094C5.38488 0.388572 3.50088 1.50145 2.15114 3.12798C1.98243 3.32773 1.89807 3.58455 1.9543 3.81283C2.01054 4.06965 2.15114 4.2694 2.3761 4.41207L4.48505 5.66764C4.62565 5.75325 4.76625 5.78178 4.90685 5.78178C5.1318 5.78178 5.32864 5.69618 5.49735 5.52496C6.11598 4.86864 6.93145 4.41207 7.77503 4.18379C8.1687 4.09819 8.42178 3.75576 8.42178 3.35626ZM17.4763 5.89592C17.3919 5.66764 17.2231 5.4679 16.9701 5.38229C16.7451 5.29668 16.464 5.32521 16.2671 5.43935L14.13 6.72342C13.7926 6.92324 13.6239 7.3227 13.7364 7.69362C13.9894 8.5497 13.9894 9.49137 13.7364 10.376C13.6239 10.747 13.7926 11.1465 14.13 11.3462L16.239 12.6018C16.464 12.7159 16.717 12.7445 16.942 12.6589C17.1669 12.5733 17.3638 12.3735 17.4482 12.1452C18.1792 10.1192 18.1792 7.92198 17.4763 5.89592ZM3.89455 6.72342L1.75747 5.4679C1.53251 5.35375 1.27944 5.32521 1.05448 5.41082C0.829524 5.49643 0.632688 5.69618 0.548329 5.92447C-0.182776 7.92198 -0.182776 10.1477 0.548329 12.1452C0.632688 12.3735 0.829524 12.5733 1.05448 12.6589C1.27944 12.7445 1.56063 12.7159 1.75747 12.6018L3.89455 11.3747C4.23198 11.175 4.4007 10.7755 4.28822 10.4045C4.03515 9.5199 4.03515 8.60676 4.28822 7.72215C4.37258 7.29416 4.20386 6.89471 3.89455 6.72342ZM6.98768 11.8313C6.81897 11.8313 6.70649 11.9455 6.70649 12.1167C6.70649 12.2879 6.81897 12.402 6.98768 12.402H11.065C11.2337 12.402 11.3462 12.2879 11.3462 12.1167C11.3462 11.9455 11.2337 11.8313 11.065 11.8313H6.98768ZM11.993 13.4293H6.03162C5.86291 13.4293 5.75043 13.5435 5.75043 13.7147C5.75043 13.8859 5.86291 14 6.03162 14H11.993C12.1617 14 12.2741 13.8859 12.2741 13.7147C12.2741 13.5435 12.1336 13.4293 11.993 13.4293Z" fill="#FE0000"/>
</svg>

<svg xmlns="http://www.w3.org/2000/svg" width="18" height="14" fill="none"><path fill="#FE0000" d="M16.07 3.813a.75.75 0 0 0-.197-.685 9 9 0 0 0-5.286-3.11c-.253-.057-.478.028-.675.2a.86.86 0 0 0-.31.656v2.482c0 .4.254.714.62.828.871.228 1.659.685 2.277 1.341a.8.8 0 0 0 .59.257c.141 0 .282-.029.422-.114l2.11-1.256a.76.76 0 0 0 .45-.6M11.91 6.039c-.085-.086-.197-.115-.31-.057-.815.313-3.487 1.398-3.852 1.769a1.81 1.81 0 0 0 0 2.51c.675.686 1.8.686 2.474 0 .366-.37 1.435-3.081 1.744-3.909a.26.26 0 0 0-.056-.313M9.293 9.292a.387.387 0 0 1-.534 0 .4.4 0 0 1 0-.542.387.387 0 0 1 .534 0c.141.142.141.37 0 .542m-.871-5.936V.874a.86.86 0 0 0-.31-.657.86.86 0 0 0-.674-.2A9 9 0 0 0 2.15 3.129c-.169.2-.253.457-.197.685a.92.92 0 0 0 .422.6l2.11 1.255c.14.085.28.114.42.114a.8.8 0 0 0 .591-.257 4.9 4.9 0 0 1 2.278-1.341c.394-.086.647-.428.647-.828m9.054 2.54a.83.83 0 0 0-.506-.514.86.86 0 0 0-.703.057L14.13 6.723a.85.85 0 0 0-.394.97 4.83 4.83 0 0 1 0 2.683.85.85 0 0 0 .394.97l2.109 1.256a.87.87 0 0 0 .703.057.9.9 0 0 0 .506-.514 9.35 9.35 0 0 0 .028-6.25m-13.581.827L1.757 5.468a.87.87 0 0 0-.703-.057.9.9 0 0 0-.506.513 9.1 9.1 0 0 0 0 6.221.9.9 0 0 0 .506.514.86.86 0 0 0 .703-.057l2.138-1.227a.85.85 0 0 0 .393-.97 4.83 4.83 0 0 1 0-2.683c.085-.428-.084-.827-.393-.999m3.093 5.108c-.169 0-.282.114-.282.286 0 .17.113.285.282.285h4.077c.169 0 .281-.114.281-.285 0-.172-.112-.286-.281-.286zm5.005 1.598H6.032c-.17 0-.282.114-.282.286 0 .17.113.285.282.285h5.961c.169 0 .281-.114.281-.285a.284.284 0 0 0-.281-.286"/></svg>
